X:1
T:Title
%%score { ( 1 3 ) | ( 2 4 ) }
L:1/8
Q:1/4=100
M:4/4
K:Ab
V:1 treble nm="Grand Piano"
V:3 treble 
V:2 bass 
V:4 bass 
V:1
 [CE][CE][_C=D][=CE] [_DF][CE][_C=D][=CE] | G2 G2 G4 | F>F FF G G2 F | [CE]6 z2 | %4
w: N.~B.~Herrell * * * * * * *||||
 [CA]>[CA] [CA][CA] [CA][CE][_C=D][=CE] | [EG]2 [DF]2 [DF]4 | [=DB]>[DF] [DF][DG] [DA] [DA]2 [DF] | %7
w: |||
 [DB]6 z2 | [CA]>[CA] [CA][CA] [CA] [CE]2 [CA] | [DG]6[K:bass] z2 | G>G GG G D2 F | %11
w: ||||
 E6[K:bass][K:treble] z2 |[M:3/4] [CA][CA] [CA][EG] [DF]2 |[M:1/4] [EF][EF] |[M:4/4] z4 G2 z2 | %15
w: ||||
 A>A[Q:1/4=92] AA G G2 B[Q:1/4=98][Q:1/4=96][Q:1/4=94][Q:1/4=90][Q:1/4=88][Q:1/4=85][Q:1/4=83][Q:1/4=81][Q:1/4=79][Q:1/4=77] | %16
w: |
 A6 z2 |] %17
w: |
V:2
 [A,,A,][A,,A,][A,,A,][A,,A,] [A,,A,][A,,A,][A,,A,][A,,A,] | [E,B,D]2 [E,B,D]2 [E,B,D]4 | %2
 [E,G,D]>[E,G,D] [E,G,D][E,G,D] [E,B,D] [E,B,D]2 [E,G,D] | [A,,A,]6 z2 | %4
 [A,,E,]>[A,,E,] [A,,E,][A,,E,] [A,,E,][A,,A,][A,,A,][A,,A,] | [D,A,]2 [D,A,]2 [D,A,]4 | %6
 [B,,B,]>[B,,B,] [B,,B,][B,,B,] [B,,B,] [B,,B,]2 [B,,B,] | [E,G,]6 z2 | %8
 [A,,E,]>[A,,E,] [A,,E,][A,,E,] [A,,E,] [A,,A,]2 [B,,A,] | [E,B,]E,E,E, E,2 z2 | %10
 [E,B,D]>[E,B,D] [E,B,D][E,B,D] [E,B,D] [G,B,]2 [G,B,D] | [A,C]A,,C,E, A,2 [A,,A,][A,,A,] | %12
[M:3/4] [A,,E,][A,,E,] [A,,A,][C,A,] [D,A,]2 |[M:1/4] [C,=A,][C,A,] | %14
[M:4/4] [B,,B,][B,,B,][B,,F,][=D,B,] .[E,B,E]2 z2 | %15
 [E,A,C]>[E,A,C] [E,A,C][E,A,C] [E,B,D] [E,B,D]2 [E,G,D] | z E,F,=E, _E,2 z2 |] %17
V:3
 x8 | x8 | x8 | x8 | x8 | x8 | x8 | x8 | x8 | z[K:bass] B,B,B, B,2 E,2 | x8 | %11
 z[K:bass] A,A,A, z2[K:treble] [CE][CE] |[M:3/4] x6 |[M:1/4] x2 |[M:4/4] [=DB][DB][DB][FA] z D z2 | %15
 x8 | [A,C]CDD C2 z2 |] %17
V:4
 x8 | x8 | x8 | x8 | x8 | x8 | x8 | x8 | x8 | x8 | x8 | x8 |[M:3/4] x6 |[M:1/4] x2 |[M:4/4] x8 | %15
 x8 | A,,6 z2 |] %17

